src/icons/terminal-powershell.svg

<svg width="16" height="16" viewBox="0 0 16 16" xmlns="http://www.w3.org/2000/svg" fill="currentColor"><path d="M6.9713 10.3959L6.83126 11.3861L11.8308 11.4515L11.9709 10.4614L6.9713 10.3959Z"/><path d="M8.68065 7.93836L5.01767 5.00747L4.32581 5.80439L6.96205 7.91586L3.73941 9.95063L4.2037 10.7627L8.68065 7.93836Z"/><path fill-rule="evenodd" clip-rule="evenodd" d="M2.49996 1.00659L15.4988 1.17676L15.9288 1.67837L14.1083 14.5503L13.5383 15.0388L0.539436 14.8686L0.109497 14.367L1.92998 1.49512L2.49996 1.00659ZM1.17943 13.885L13.1784 14.0421L14.8588 2.16036L2.85988 2.00328L1.17943 13.885Z"/></svg>

<svg width="16" height="16" viewBox="0 0 16 16" xmlns="http://www.w3.org/2000/svg" fill="currentColor"><path fill-rule="evenodd" clip-rule="evenodd" d="M2.5 1.007l12.999.17.43.501-1.82 12.872-.57.489-13-.17-.43-.502L1.93 1.495l.57-.488zM1.18 13.885l11.998.157 1.68-11.882L2.86 2.003 1.18 13.885zm5.791-3.49l-.14.991 5 .066.14-.99-5-.066zm1.71-2.457l-3.663-2.93-.692.796 2.636 2.112L3.739 9.95l.465.812L8.68 7.938z"/></svg>
